assets/svgs/like.svg

<?xml version="1.0" encoding="UTF-8"?>
<svg width="24px" height="24px" viewBox="0 0 24 24" version="1.1" xmlns="http://www.w3.org/2000/svg" xmlns:xlink="http://www.w3.org/1999/xlink">
    <!-- Generator: Sketch 46.1 (44463) - http://www.bohemiancoding.com/sketch -->
    <title>like</title>
    <desc>Created with Sketch.</desc>
    <defs></defs>
    <g id="Page-1" stroke="none" stroke-width="1" fill="none" fill-rule="evenodd" stroke-linecap="round" stroke-linejoin="round">
        <g id="like" stroke="#000000">
            <path d="M19,15.5 L19,15.5 C19.829,15.5 20.5,16.172 20.5,17 C20.5,17.829 19.829,18.5 19,18.5 L18,18.5 C18.829,18.5 19.5,19.172 19.5,20 C19.5,20.829 18.829,21.5 18,21.5 L11.5,21.5 C7.5,21.5 8.5,19.5 0.5,19.5 L0.5,10.5 L3.5,10.5 C7,10.5 11,7.278 11,2.5 C11,0.919 14,0.719 14,3.719 C14,5.719 13,9.5 13,9.5 L21,9.5 C21.829,9.5 22.5,10.172 22.5,11 C22.5,11.829 21.829,12.5 21,12.5 L20,12.5 C20.829,12.5 21.5,13.172 21.5,14 C21.5,14.829 20.829,15.5 20,15.5 L19,15.5" id="Stroke-168"></path>
        </g>
    </g>
</svg>

<svg width="24" height="24" viewBox="0 0 24 24" xmlns="http://www.w3.org/2000/svg"><title>like</title><path d="M19 15.5a1.5 1.5 0 1 1 0 3h-1a1.5 1.5 0 1 1 0 3h-6.5c-4 0-3-2-11-2v-9h3c3.5 0 7.5-3.222 7.5-8 0-1.581 3-1.781 3 1.219 0 2-1 5.781-1 5.781h8a1.5 1.5 0 1 1 0 3h-1a1.5 1.5 0 1 1 0 3h-1" stroke="#000" fill="none" stroke-linecap="round" stroke-linejoin="round"/></svg>
